dist/svgs/core-ui-icons/free/cil-print.svg

<svg xmlns="http://www.w3.org/2000/svg" viewBox="0 0 512 512"><path d="M420 128.1V16H92v112.1A80.1 80.1 0 0016 208v192h68v-32H48V208a48.054 48.054 0 0148-48h320a48.054 48.054 0 0148 48v160h-44v32h76V208a80.1 80.1 0 00-76-79.9zm-32-.1H124V48h264z"/><path d="M396 200h32v32h-32zm-280 64H76v32h40v200h272V296h40v-32H116zm240 200H148V296h208z"/></svg>

<svg xmlns="http://www.w3.org/2000/svg" viewBox="0 0 512 512">
  <path fill="var(--ci-primary-color, currentColor)" d="M420,128.1V16H92V128.1A80.1,80.1,0,0,0,16,208V400H84V368H48V208a48.054,48.054,0,0,1,48-48H416a48.054,48.054,0,0,1,48,48V368H420v32h76V208A80.1,80.1,0,0,0,420,128.1Zm-32-.1H124V48H388Z" class="ci-primary"/>
  <rect width="32" height="32" x="396" y="200" fill="var(--ci-primary-color, currentColor)" class="ci-primary"/>
  <path fill="var(--ci-primary-color, currentColor)" d="M116,264H76v32h40V496H388V296h40V264H116ZM356,464H148V296H356Z" class="ci-primary"/>
</svg>
